build/Karasa-Jaga/scalable/categories/applications-utilities-symbolic.svg

<svg height="16" width="16" xmlns="http://www.w3.org/2000/svg"><path d="m13.0625.65625-.875.9375-.4375-.125-8.71875 6.53125-2.15625 2.21875 1.78125-.78125 7.40625-5.625.5.46875-4.65625 7.5-.96875 1.625 1.59375-1.1875 5.21875-8.09375 1.09375-1.6875-.28125-.4375.90625-.96875c-.024786-.23624213-.111347-.38636477-.40625-.375zm-12.125.15625v8.59375l1.71875-1.78125a.51637526.51637526 0 0 1 .0625-.03125l.53125-.40625v-.6875l.40625.40625 1.875-1.40625zm12.875 1.8125c-.128536.015193-.261727.058253-.375.125a.27956053.27956053 0 0 0 -.125.15625l-2.75 8.65625a.27956053.27956053 0 0 0 0 .0625l-.125 2.1875a.27956053.27956053 0 0 0 0 .125.27956053.27956053 0 0 0 .03125.0625.27956053.27956053 0 0 0 .03125.03125.27956053.27956053 0 0 0 .03125.03125.27956053.27956053 0 0 0 .03125.03125.27956053.27956053 0 0 0 .09375.03125.27956053.27956053 0 0 0 .09375 0 .27956053.27956053 0 0 0 .03125 0 .27956053.27956053 0 0 0 .09375-.03125.27956053.27956053 0 0 0 .03125-.03125.27956053.27956053 0 0 0 .0625-.0625l1.09375-1.75a.27956053.27956053 0 0 0 .03125-.0625l2.78125-8.6875a.27956053.27956053 0 0 0 0-.125.27956053.27956053 0 0 0 -.03125-.0625c-.138245-.331203-.360499-.5763001-.625-.65625-.126623-.038274-.277714-.046443-.40625-.03125zm-6.9375 4.25-1.875 1.4375 1.5 1.53125 1.28125-2.03125zm2.25 2.3125-1.3125 2 1.65625 1.6875h-2.96875l-1.25.9375a.51637526.51637526 0 0 1 -.75-.65625l.15625-.28125h-1.40625v-3.25l-.28125.21875a.51637526.51637526 0 0 1 -.09375.0625l-1.78125.78125a.51637526.51637526 0 0 1 -.15625.0625v4.4375h14.03125l-2.5-2.5625-1.03125 1.65625a.53603287.53603287 0 0 1 -.03125.03125c.00199-.00275-.03335.03395-.03125.03125.0021-.00267-.0022.03385 0 .03125s-.03355.0025-.03125 0c.0023-.00249-.03365.03365-.03125.03125s-.03375.03355-.03125.03125c.0023-.00248-.0024.03365 0 .03125.00239-.0024-.03375.0023-.03125 0 .00248-.0023-.03385.03345-.03125.03125a.53603287.53603287 0 0 1 -.09375.0625c.00333-.00182-.03465.03295-.03125.03125.00341-.0017-.03475.0015-.03125 0 .00348-.00151-.03475.03265-.03125.03125.00355-.0014-.03485.0012-.03125 0s-.03495.001-.03125 0c.00365-.00104-.03495.032126-.03125.03125.00369-.000876-.03495.000711-.03125 0 .00373-.000711-.0663.000545-.0625 0 .00355-.000604-.03485.000454-.03125 0 .00477-.000267-.0673 0-.0625 0 .0018-.000076-.02175-.0002-.03125 0-.00948.0002-.03305 0-.03125 0 .0036 0-.03485-.000152-.03125 0s-.03485-.000303-.03125 0c.00359.000303-.03485-.000454-.03125 0 .00188.000273-.02135.0017-.03125 0-.00987-.0017-.03315-.000356-.03125 0 .00373.000711-.03495-.000876-.03125 0 .00369.00088-.03495-.03225-.03125-.03125.00365.001-.03485-.0012-.03125 0s-.03475-.0014-.03125 0c.00355.00136-.03475-.03275-.03125-.03125.00348.0015-.03465-.0017-.03125 0 .00341.00167-.03455-.03305-.03125-.03125a.53603287.53603287 0 0 1 -.09375-.0625c.00257.0022-.03375-.03355-.03125-.03125.00129.0011-.02455.0059-.03125 0 .0024.00239-.0023-.03375 0-.03125.00129.0011-.02455.0059-.03125 0 .0024.00239-.0023-.03375 0-.03125.00115.0012-.02535.0067-.03125 0 .0024.00239-.0023-.03375 0-.03125.0023.00248-.03345-.03385-.03125-.03125a.53603287.53603287 0 0 1 -.03125-.03125c.00297.00445-.03394-.0671-.03125-.0625.00269.00463-.03364-.03605-.03125-.03125.002395.00479-.03334-.0674-.03125-.0625.00209.00493-.00178-.03635 0-.03125a.53603287.53603287 0 0 1 -.03125-.0625c.00108.0047-.0008108-.0672 0-.0625.0008108.00475-.000542-.03605 0-.03125.000542.00479-.0002714-.0673 0-.0625.0002714.00481 0-.03605 0-.03125 0 .00482.0002714-.03605 0-.03125-.0002714.00481.000542-.0673 0-.0625-.000542.00479.0008108-.03595 0-.03125-.0008108.00475.00108-.0672 0-.0625l.125-2c.000535.00476-.000268-.0673 0-.0625.000268.00478 0-.03605 0-.03125 0 .00479.000268-.03605 0-.03125-.000268.00478.000535-.0673 0-.0625a.53603287.53603287 0 0 1 .03125-.09375l.3125-.9375z" fill="#bebebe"/></svg>

<?xml version="1.0" encoding="UTF-8" standalone="no"?>
<!-- Created with Inkscape (http://www.inkscape.org/) -->

<svg
   xmlns:dc="http://purl.org/dc/elements/1.1/"
   xmlns:cc="http://creativecommons.org/ns#"
   xmlns:rdf="http://www.w3.org/1999/02/22-rdf-syntax-ns#"
   xmlns:svg="http://www.w3.org/2000/svg"
   xmlns="http://www.w3.org/2000/svg"
   xmlns:sodipodi="http://sodipodi.sourceforge.net/DTD/sodipodi-0.dtd"
   xmlns:inkscape="http://www.inkscape.org/namespaces/inkscape"
   id="svg7384"
   height="16"
   width="16"
   version="1.1"
   inkscape:version="0.48.3.1 r9886"
   sodipodi:docname="applications-utilities-symbolic.svg">
  <defs
     id="defs5894" />
  <sodipodi:namedview
     pagecolor="#ffffff"
     bordercolor="#666666"
     borderopacity="1"
     objecttolerance="10"
     gridtolerance="10"
     guidetolerance="10"
     inkscape:pageopacity="0"
     inkscape:pageshadow="2"
     inkscape:window-width="1366"
     inkscape:window-height="714"
     id="namedview5892"
     showgrid="false"
     showguides="true"
     inkscape:guide-bbox="true"
     inkscape:zoom="3.6875"
     inkscape:cx="87.02226"
     inkscape:cy="-23.869876"
     inkscape:window-x="0"
     inkscape:window-y="22"
     inkscape:window-maximized="1"
     inkscape:current-layer="svg7384" />
  <metadata
     id="metadata90">
    <rdf:RDF>
      <cc:Work
         rdf:about="">
        <dc:format>image/svg+xml</dc:format>
        <dc:type
           rdf:resource="http://purl.org/dc/dcmitype/StillImage" />
        <dc:title>Gnome Symbolic Icon Theme</dc:title>
      </cc:Work>
    </rdf:RDF>
  </metadata>
  <title
     id="title9167">Gnome Symbolic Icon Theme</title>
  <path
     style="fill:#bebebe;stroke:none;stroke-width:1px;stroke-linecap:butt;stroke-linejoin:miter;stroke-opacity:1;fill-opacity:1"
     d="M 13.0625 0.65625 L 12.1875 1.59375 L 11.75 1.46875 L 3.03125 8 L 0.875 10.21875 L 2.65625 9.4375 L 10.0625 3.8125 L 10.5625 4.28125 L 5.90625 11.78125 L 4.9375 13.40625 L 6.53125 12.21875 L 11.75 4.125 L 12.84375 2.4375 L 12.5625 2 L 13.46875 1.03125 C 13.443964 0.79500787 13.357403 0.64488523 13.0625 0.65625 z M 0.9375 0.8125 L 0.9375 9.40625 L 2.65625 7.625 A 0.51637526 0.51637526 0 0 1 2.71875 7.59375 L 3.25 7.1875 L 3.25 6.5 L 3.65625 6.90625 L 5.53125 5.5 L 0.9375 0.8125 z M 13.8125 2.625 C 13.683964 2.640193 13.550773 2.683253 13.4375 2.75 A 0.27956053 0.27956053 0 0 0 13.3125 2.90625 L 10.5625 11.5625 A 0.27956053 0.27956053 0 0 0 10.5625 11.625 L 10.4375 13.8125 A 0.27956053 0.27956053 0 0 0 10.4375 13.9375 A 0.27956053 0.27956053 0 0 0 10.46875 14 A 0.27956053 0.27956053 0 0 0 10.5 14.03125 A 0.27956053 0.27956053 0 0 0 10.53125 14.0625 A 0.27956053 0.27956053 0 0 0 10.5625 14.09375 A 0.27956053 0.27956053 0 0 0 10.65625 14.125 A 0.27956053 0.27956053 0 0 0 10.75 14.125 A 0.27956053 0.27956053 0 0 0 10.78125 14.125 A 0.27956053 0.27956053 0 0 0 10.875 14.09375 A 0.27956053 0.27956053 0 0 0 10.90625 14.0625 A 0.27956053 0.27956053 0 0 0 10.96875 14 L 12.0625 12.25 A 0.27956053 0.27956053 0 0 0 12.09375 12.1875 L 14.875 3.5 A 0.27956053 0.27956053 0 0 0 14.875 3.375 A 0.27956053 0.27956053 0 0 0 14.84375 3.3125 C 14.705505 2.981297 14.483251 2.7361999 14.21875 2.65625 C 14.092127 2.617976 13.941036 2.609807 13.8125 2.625 z M 6.875 6.875 L 5 8.3125 L 6.5 9.84375 L 7.78125 7.8125 L 6.875 6.875 z M 9.125 9.1875 L 7.8125 11.1875 L 9.46875 12.875 L 6.5 12.875 L 5.25 13.8125 A 0.51637526 0.51637526 0 0 1 4.5 13.15625 L 4.65625 12.875 L 3.25 12.875 L 3.25 9.625 L 2.96875 9.84375 A 0.51637526 0.51637526 0 0 1 2.875 9.90625 L 1.09375 10.6875 A 0.51637526 0.51637526 0 0 1 0.9375 10.75 L 0.9375 15.1875 L 14.96875 15.1875 L 12.46875 12.625 L 11.4375 14.28125 A 0.53603287 0.53603287 0 0 1 11.40625 14.3125 C 11.40824 14.30975 11.3729 14.34645 11.375 14.34375 C 11.3771 14.34108 11.3728 14.3776 11.375 14.375 C 11.3772 14.3724 11.34145 14.3775 11.34375 14.375 C 11.34605 14.37251 11.3101 14.40865 11.3125 14.40625 C 11.3149 14.40385 11.27875 14.4398 11.28125 14.4375 C 11.28355 14.43502 11.27885 14.47115 11.28125 14.46875 C 11.28364 14.46635 11.2475 14.47105 11.25 14.46875 C 11.25248 14.46645 11.21615 14.5022 11.21875 14.5 A 0.53603287 0.53603287 0 0 1 11.125 14.5625 C 11.12833 14.56068 11.09035 14.59545 11.09375 14.59375 C 11.09716 14.59205 11.059 14.59525 11.0625 14.59375 C 11.06598 14.59224 11.02775 14.6264 11.03125 14.625 C 11.0348 14.6236 10.9964 14.6262 11 14.625 C 11.0036 14.6238 10.96505 14.626 10.96875 14.625 C 10.9724 14.62396 10.9338 14.657126 10.9375 14.65625 C 10.94119 14.655374 10.90255 14.656961 10.90625 14.65625 C 10.90998 14.655539 10.83995 14.656795 10.84375 14.65625 C 10.8473 14.655646 10.8089 14.656704 10.8125 14.65625 C 10.81727 14.655983 10.7452 14.65625 10.75 14.65625 C 10.7518 14.656174 10.72825 14.65605 10.71875 14.65625 C 10.70927 14.65645 10.6857 14.65625 10.6875 14.65625 C 10.6911 14.65625 10.65265 14.656098 10.65625 14.65625 C 10.65985 14.656402 10.6214 14.655947 10.625 14.65625 C 10.62859 14.656553 10.59015 14.655796 10.59375 14.65625 C 10.59563 14.656523 10.5724 14.65795 10.5625 14.65625 C 10.55263 14.65455 10.52935 14.655894 10.53125 14.65625 C 10.53498 14.656961 10.4963 14.655374 10.5 14.65625 C 10.50369 14.65713 10.46505 14.624 10.46875 14.625 C 10.4724 14.626 10.4339 14.6238 10.4375 14.625 C 10.4411 14.6262 10.40275 14.6236 10.40625 14.625 C 10.4098 14.62636 10.3715 14.59225 10.375 14.59375 C 10.37848 14.59525 10.34035 14.59205 10.34375 14.59375 C 10.34716 14.59542 10.3092 14.5607 10.3125 14.5625 A 0.53603287 0.53603287 0 0 1 10.21875 14.5 C 10.22132 14.5022 10.185 14.46645 10.1875 14.46875 C 10.18879 14.46985 10.16295 14.47465 10.15625 14.46875 C 10.15865 14.47114 10.15395 14.435 10.15625 14.4375 C 10.15754 14.4386 10.1317 14.4434 10.125 14.4375 C 10.1274 14.43989 10.1227 14.40375 10.125 14.40625 C 10.12615 14.40745 10.09965 14.41295 10.09375 14.40625 C 10.09615 14.40864 10.09145 14.3725 10.09375 14.375 C 10.09605 14.37748 10.0603 14.34115 10.0625 14.34375 A 0.53603287 0.53603287 0 0 1 10.03125 14.3125 C 10.03422 14.31695 9.99731 14.2454 10 14.25 C 10.00269 14.25463 9.96636 14.21395 9.96875 14.21875 C 9.971145 14.22354 9.93541 14.15135 9.9375 14.15625 C 9.93959 14.16118 9.93572 14.1199 9.9375 14.125 A 0.53603287 0.53603287 0 0 1 9.90625 14.0625 C 9.90733 14.0672 9.9054392 13.9953 9.90625 14 C 9.9070608 14.00475 9.905708 13.96395 9.90625 13.96875 C 9.906792 13.97354 9.9059786 13.90145 9.90625 13.90625 C 9.9065214 13.91106 9.90625 13.8702 9.90625 13.875 C 9.90625 13.87982 9.9065214 13.83895 9.90625 13.84375 C 9.9059786 13.84856 9.906792 13.77645 9.90625 13.78125 C 9.905708 13.78604 9.9070608 13.7453 9.90625 13.75 C 9.9054392 13.75475 9.90733 13.6828 9.90625 13.6875 L 10.03125 11.6875 C 10.031785 11.69226 10.030982 11.6202 10.03125 11.625 C 10.031518 11.62978 10.03125 11.58895 10.03125 11.59375 C 10.03125 11.59854 10.031518 11.5577 10.03125 11.5625 C 10.030982 11.56728 10.031785 11.4952 10.03125 11.5 A 0.53603287 0.53603287 0 0 1 10.0625 11.40625 L 10.375 10.46875 L 9.125 9.1875 z "
     id="path5958" />
</svg>
